X: 241
T: Behind the Bush
%R: hornpipe
Z: 2017 John Chambers <jc:trillian.mit.edu>
B: John Treat - "Gamut for the Fifes", 1779, p.24 #1
F: https://archive.org/details/GamutFortheFifes
M: C|
L: 1/8
K: D
% - - - - - - - - - - - - - - - - - - - - - - - - -
A |\
d>ef>d g>df>B | de (3fed c2 e2 |\
d>ef>d g>ef>d | (3fga (3gfe d2 d :|
|: g |\
(3fed c>A (3AcA Ag | (3fed (3cBA B3 g |\
(3fed c>A (3AcA Ag | (3fga (3gfe d2 d :|
% - - - - - - - - - - - - - - - - - - - - - - - - -
